X: 821
T: Richmond
B: jims roots
M:2/4
L:1/8
R: Reel
Q: 1/4=100
K:A
V:1 
%
%N:ABC's from a transcription by John Lamancusa,
%N:by permission http://www.mne.psu.edu/lamancusa/tunes.htm
|: "A"e2c2e2c2 | efec A2 Ac | "E"B2G2B2G2 | BcBG "A"A2A2 |
"A"ABcd e2a2 | "D"=gefd "A"efed | cABG "E"EGBd | [1 "A"c2A2 A2 e2 :| [2 "A"c2A2 A2 [A,2A2]- ||
|: "A"[A,2A2] ag a2a2 | c'4 e3f | [M:3/2] ef=ge "D"fd [d2f2] d2 ef | [M:2/4] "A"edcB A2G2 |
ABcd e2a2 | =gefd efed | cABG "E"EGBd | [1 "A"c2A2 A2 [A,2A2]:| [2 "A"c2 A2 A4 ||
% abcbook-tune_id 6298c2791591b11d2515a36c


% abcbook-boost 0
% abcbook-tablature 
% abcbook-transpose 
% abcbook-lastupdated 1654178426869
% abcbook-soundfonts 
% abcbook-repeats 1


